icons/ambulatory_clinic_fill.svg

<svg width="48" height="48" viewBox="0 0 48 48" fill="none" xmlns="http://www.w3.org/2000/svg">
<path fill-rule="evenodd" clip-rule="evenodd" d="M19 6C21.6067 6 23.8251 7.66227 24.6531 9.98462H42.5V12.5014L38 15.5321V40H41C41.5523 40 42 40.4477 42 41C42 41.5523 41.5523 42 41 42H38V42.0154H10V42H7C6.44772 42 6 41.5523 6 41C6 40.4477 6.44772 40 7 40H10V15.4969L6 12.4662V9.98462H13.3469C14.1749 7.66227 16.3933 6 19 6ZM20 11V9H18V11H16V13H18V15H20V13H22V11H20ZM34 24V40H26V24H34ZM21 24H14V31H21V24Z" fill="black"/>
</svg>

<svg
  xmlns="http://www.w3.org/2000/svg"
  width="24"
  height="24"
  viewBox="0 0 24 24"
  fill="none"
  stroke="currentColor"
  stroke-width="2"
  stroke-linecap="round"
  stroke-linejoin="round"
>
  <path
    fill-rule="evenodd"
    d="M19 6a6 6 0 0 1 5.653 3.985H42.5V12.5L38 15.532V40h3a1 1 0 1 1 0 2h-3v.015H10V42H7a1 1 0 1 1 0-2h3V15.497l-4-3.03V9.984h7.347A6 6 0 0 1 19 6m1 5V9h-2v2h-2v2h2v2h2v-2h2v-2zm14 13v16h-8V24zm-13 0h-7v7h7z"
    clip-rule="evenodd"
  />
</svg>
